X:94
T: Ein Frulein stand vor der Himmelstr (1-18), S. 49
N: K0094
O: Luxemburg
S: KINTZELE, Guillaume: An der Ucht, Bd. 1, Luxemburg 1926]
N: in der Quelle mit einer 2. Stimme versehen
R: Scherz-, Spottlied]
M: 2/4
L: 1/16
K: C
c2 | G2G2GGcc | c2B2A2
dd | d2ccB2GG | e4c2
c2 | G2G2GGcc | B2c2B2
dd | d2ccB2GG | c4z2

